X:1
T:Mr. O'Connor
T:Mr. O'Connor
T:Turlough Carolan
C:Turlough Carolan
L:1/8
M:3/4
K:Gmin
V:1 treble 
V:1
 d2 G2 A2 | BcBA G2 | g2 G2 A2 | BABc d2 | de c2 d2 | dcBA d2 | dcBA G2 | F2 A2 GF | G2 B2 g2 | %9
 gfga b2 | BdBd G2 | d'2 d'c' b2 | AcAc F2 | c'2{c'} b2 a2 | abag a2 |{g} f4 d2 | G2 B2 A2 | %17
 G2 c2 B2 | A2 d2 c2 | B2 e2 d2 | dcBA d2 | cBAG A2 | D2 G2 ^F2 | G6 || DFGA B2 | d2 c2 B2 | %26
 A2 B2 G2 | F2 d2 D2 | gfga b2 | a2 f2 c'2 | d'2 d'c' b2 | a4 gf | gagf g2 | B2 A2 G2 | fgfd f2 | %35
 BcBc A2 | dedc d2 | G2 B2 c2 | G2 c2 BA | B4 c2 | d2 BdBd | f2 f2 f2 | g2 dg dg | a2 a2 a2 | %44
 babc' d'2 | c'bab c'2 | bf d2 ^f2 | g6 || %48

